src/lib/Icons/vscode.svg

<svg fill="none" height="40" viewBox="0 0 40 40" width="40" xmlns="http://www.w3.org/2000/svg"><path d="m30 0v34.375l-30-4.475 30 10.1 10-4.1625v-31.68125zm-10.5 5.85-9.1875 9.0875-5.53125-4.1688-2.28125.7626 5.625 5.5625-5.625 5.5624 2.28125.7626 5.53125-4.1688 9.1875 9.0813 5.5-2.3313v-17.8125zm0 6.4812v9.5438l-6.3125-4.7812z" fill="#007acc"/></svg>

<svg width="40" height="40" viewBox="0 0 40 40" fill="none" xmlns="http://www.w3.org/2000/svg">
<path d="M30 0V34.375L0 29.9L30 40L40 35.8375V4.15625L30 0ZM19.5 5.85L10.3125 14.9375L4.78125 10.7687L2.5 11.5313L8.125 17.0938L2.5 22.6562L4.78125 23.4188L10.3125 19.25L19.5 28.3313L25 26V8.1875L19.5 5.85ZM19.5 12.3312V21.875L13.1875 17.0938L19.5 12.3312Z" fill="#007ACC"/>
</svg>
